svgs/duotone/toilet.svg

<svg xmlns="http://www.w3.org/2000/svg" viewBox="0 0 448 512"><!-- Font Awesome Pro 6.0.0-alpha2 by @fontawesome - https://fontawesome.com License - https://fontawesome.com/license (Commercial License) --><defs><style>.fa-secondary{opacity:.4}</style></defs><path d="M432 0H16C7.25 0 0 7.25 0 16V32C0 40.75 7.25 48 16 48H432C440.75 48 448 40.75 448 32V16C448 7.25 440.75 0 432 0ZM152 80H104C99.625 80 96 83.625 96 88V104C96 108.375 99.625 112 104 112H152C156.375 112 160 108.375 160 104V88C160 83.625 156.375 80 152 80Z" class="fa-secondary"/><path d="M448 256C448 237.965 436.184 221.152 416 206.738V48H32V206.738C11.816 221.152 0 237.965 0 256C0 316.984 33.275 371.217 84.998 406.389L65.406 470.75C59.156 491.25 74.531 512 96.031 512H351.969C373.469 512 388.844 491.25 382.594 470.75L363.002 406.389C414.725 371.217 448 316.984 448 256ZM96 88C96 83.625 99.625 80 104 80H152C156.375 80 160 83.625 160 88V104C160 108.375 156.375 112 152 112H104C99.625 112 96 108.375 96 104V88ZM224 288C135.635 288 64 273.672 64 256C64 238.326 135.635 224 224 224S384 238.326 384 256C384 273.672 312.365 288 224 288Z" class="fa-primary"/></svg>

<svg xmlns="http://www.w3.org/2000/svg" viewBox="0 0 448 512"><!--! Font Awesome Pro 6.3.0 by @fontawesome - https://fontawesome.com License - https://fontawesome.com/license (Commercial License) Copyright 2023 Fonticons, Inc. --><defs><style>.fa-secondary{opacity:.4}</style></defs><path class="fa-primary" d="M448 256c0-18.04-11.82-34.85-32-49.26V48H32v158.7C11.82 221.2 0 237.1 0 256c0 60.98 33.28 115.2 84.1 150.4l-19.59 64.36C59.16 491.3 74.53 512 96.03 512h255.9c21.5 0 36.88-20.75 30.62-41.25L363 406.4C414.7 371.2 448 316.1 448 256zM96 88C96 83.63 99.63 80 104 80h48C156.4 80 160 83.63 160 88v16C160 108.4 156.4 112 152 112h-48C99.63 112 96 108.4 96 104V88zM224 288C135.6 288 64 273.7 64 256c0-17.67 71.63-32 160-32s160 14.33 160 32C384 273.7 312.4 288 224 288z"/><path class="fa-secondary" d="M432 0h-416C7.25 0 0 7.25 0 16V32c0 8.75 7.25 16 16 16h416C440.8 48 448 40.75 448 32V16C448 7.25 440.8 0 432 0zM152 80h-48C99.63 80 96 83.63 96 88v16C96 108.4 99.63 112 104 112h48C156.4 112 160 108.4 160 104v-16C160 83.63 156.4 80 152 80z"/></svg>
